local/share/icons/dracula-icons-main/scalable/apps/kruler.svg

<?xml version="1.0" encoding="UTF-8"?>
<svg xmlns="http://www.w3.org/2000/svg" xmlns:xlink="http://www.w3.org/1999/xlink" width="64" height="64" viewBox="0 0 64 64">
<path fill-rule="nonzero" fill="rgb(30.196078%, 71.372549%, 67.45098%)" fill-opacity="1" d="M 59 32 C 59 46.910156 46.910156 59 32 59 C 17.089844 59 5 46.910156 5 32 C 5 17.089844 17.089844 5 32 5 C 46.910156 5 59 17.089844 59 32 Z M 59 32 "/>
<path fill-rule="nonzero" fill="rgb(87.843137%, 94.901961%, 94.509804%)" fill-opacity="1" d="M 24 51 L 40 51 L 40 53 L 24 53 Z M 24 51 "/>
<path fill-rule="nonzero" fill="rgb(100%, 71.764706%, 30.196078%)" fill-opacity="1" d="M 17 39 L 58 39 C 59.105469 39 60 39.894531 60 41 L 60 47 C 60 48.105469 59.105469 49 58 49 L 17 49 C 15.894531 49 15 48.105469 15 47 L 15 41 C 15 39.894531 15.894531 39 17 39 Z M 17 39 "/>
<path fill-rule="nonzero" fill="rgb(87.843137%, 94.901961%, 94.509804%)" fill-opacity="1" d="M 20 13 L 28.980469 13 L 28.980469 15 L 20 15 Z M 20 13 "/>
<path fill-rule="nonzero" fill="rgb(87.843137%, 94.901961%, 94.509804%)" fill-opacity="1" d="M 15.988281 19 L 46.921875 19 L 46.921875 21 L 15.988281 21 Z M 15.988281 19 "/>
<path fill-rule="nonzero" fill="rgb(87.843137%, 94.901961%, 94.509804%)" fill-opacity="1" d="M 15.988281 23 L 42.933594 23 L 42.933594 25 L 15.988281 25 Z M 15.988281 23 "/>
<path fill-rule="nonzero" fill="rgb(87.843137%, 94.901961%, 94.509804%)" fill-opacity="1" d="M 15.988281 27 L 45.925781 27 L 45.925781 29 L 15.988281 29 Z M 15.988281 27 "/>
<path fill-rule="nonzero" fill="rgb(87.843137%, 94.901961%, 94.509804%)" fill-opacity="1" d="M 15.988281 31 L 38.941406 31 L 38.941406 33 L 15.988281 33 Z M 15.988281 31 "/>
<path fill-rule="nonzero" fill="rgb(87.843137%, 94.901961%, 94.509804%)" fill-opacity="1" d="M 15.988281 35 L 43.929688 35 L 43.929688 37 L 15.988281 37 Z M 15.988281 35 "/>
<path fill-rule="nonzero" fill="rgb(96.078431%, 48.627451%, 0%)" fill-opacity="1" d="M 17.984375 44.898438 L 17.984375 47.898438 L 18.984375 47.898438 L 18.984375 44.898438 Z M 23.972656 44.898438 L 23.972656 47.898438 L 24.96875 47.898438 L 24.96875 44.898438 Z M 29.960938 44.898438 L 29.960938 47.898438 L 30.957031 47.898438 L 30.957031 44.898438 Z M 35.945312 44.898438 L 35.945312 47.898438 L 36.945312 47.898438 L 36.945312 44.898438 Z M 41.933594 44.898438 L 41.933594 47.898438 L 42.933594 47.898438 L 42.933594 44.898438 Z M 47.921875 44.898438 L 47.921875 47.898438 L 48.917969 47.898438 L 48.917969 44.898438 Z M 53.90625 44.898438 L 53.90625 47.898438 L 54.90625 47.898438 L 54.90625 44.898438 Z M 20.976562 45.898438 L 20.976562 47.898438 L 21.976562 47.898438 L 21.976562 45.898438 Z M 26.964844 45.898438 L 26.964844 47.898438 L 27.964844 47.898438 L 27.964844 45.898438 Z M 32.953125 45.898438 L 32.953125 47.898438 L 33.949219 47.898438 L 33.949219 45.898438 Z M 38.941406 45.898438 L 38.941406 47.898438 L 39.9375 47.898438 L 39.9375 45.898438 Z M 44.925781 45.898438 L 44.925781 47.898438 L 45.925781 47.898438 L 45.925781 45.898438 Z M 50.914062 45.898438 L 50.914062 47.898438 L 51.910156 47.898438 L 51.910156 45.898438 Z M 50.914062 45.898438 "/>
<path fill-rule="evenodd" fill="rgb(21.568627%, 27.843137%, 30.980392%)" fill-opacity="1" d="M 39.003906 54 L 39.003906 46 L 37.007812 46 L 40 42 L 42.992188 46 L 40.996094 46 L 40.996094 54 Z M 39.003906 54 "/>
<path fill-rule="nonzero" fill="rgb(21.568627%, 27.843137%, 30.980392%)" fill-opacity="1" d="M 40 57 C 38.898438 57 38.003906 56.105469 38.003906 55 C 38.003906 53.894531 38.898438 53 40 53 C 41.101562 53 41.996094 53.894531 41.996094 55 C 41.996094 56.105469 41.101562 57 40 57 Z M 40 56 C 40.550781 56 40.996094 55.550781 40.996094 55 C 40.996094 54.449219 40.550781 54 40 54 C 39.449219 54 39.003906 54.449219 39.003906 55 C 39.003906 55.550781 39.449219 56 40 56 Z M 40 56 "/>
</svg>

<svg width="64" height="64" version="1.1" viewBox="0 0 64 64" xmlns="http://www.w3.org/2000/svg">
 <circle cx="32" cy="32" r="27" fill="#4db6ac" stroke-width="3.7796" style="paint-order:stroke fill markers"/>
 <rect x="24" y="51" width="16" height="2" fill="#e0f2f1" stroke-width=".77061"/>
 <rect x="15" y="39" width="45" height="10" rx="2" ry="2" fill="#ffb74d"/>
 <g transform="translate(0,-1058.5)" fill="#e0f2f1">
  <rect x="20" y="1071.5" width="8.9809" height="2" ry="0"/>
  <rect x="15.989" y="1077.5" width="30.934" height="2"/>
  <rect x="15.989" y="1081.5" width="26.943" height="1.9999"/>
  <rect x="15.989" y="1085.5" width="29.936" height="2"/>
  <rect x="15.989" y="1089.5" width="22.951" height="1.9999"/>
  <rect x="15.989" y="1093.5" width="27.94" height="2"/>
 </g>
 <path d="m17.985 44.9v3h0.99787v-3zm5.9872 0v3h0.99787v-3zm5.9872 0v3h0.99787v-3zm5.9872 0v3h0.99787v-3zm5.9872 0v3h0.99787v-3zm5.9872 0v3h0.99787v-3zm5.9872 0v3h0.99787v-3zm-32.93 1v2h0.99787v-2zm5.9872 0v2h0.99787v-2zm5.9872 0v2h0.99787v-2zm5.9872 0v2h0.99787v-2zm5.9872 0v2h0.99787v-2zm5.9872 0v2h0.99787v-2z" fill="#f57c00"/>
 <path d="m39.002 54v-8h-1.9957l2.9936-4 2.9936 4h-1.9957v8z" fill="#37474f" fill-rule="evenodd"/>
 <path d="m40 57a1.9957 2 0 0 1-1.9957-2 1.9957 2 0 0 1 1.9957-2 1.9957 2 0 0 1 1.9957 2 1.9957 2 0 0 1-1.9957 2zm0-1a0.99787 1 0 0 0 0.99787-1 0.99787 1 0 0 0-0.99787-1 0.99787 1 0 0 0-0.99787 1 0.99787 1 0 0 0 0.99787 1z" fill="#37474f"/>
</svg>
